icon/bts/bell.svg

<svg xmlns="http://www.w3.org/2000/svg" width="32" height="32" fill="none" stroke="currentcolor" stroke-linecap="round" stroke-linejoin="round" stroke-width="2"><path d="M8 17c0-5 1-11 8-11s8 6 8 11 3 8 3 8H5s3-3 3-8Zm12 8s0 4-4 4-4-4-4-4m4-22v3"/></svg>

<svg id="i-bell" xmlns="http://www.w3.org/2000/svg" viewBox="0 0 32 32" fill="none" stroke="currentcolor" stroke-linecap="round" stroke-linejoin="round" stroke-width="2" height="1em" width="1em">
  <path d="M8 17 C8 12 9 6 16 6 23 6 24 12 24 17 24 22 27 25 27 25 L5 25 C5 25 8 22 8 17 Z M20 25 C20 25 20 29 16 29 12 29 12 25 12 25 M16 3 L16 6"/>
</svg>
